X: 2038
T: Zannetme Ben Gibi Sana Bende...
C: Numan Ağa
O: Turkey
F: http://compmusic.upf.edu/node/140
N: rehavi--beste--remel--zannetme_ben--numan_aga
N: makam= rehavi
N: form= beste
N: usul= remel = 28/2
M: 28/2
L: 1/16
K: C _1/4B ^f  
Q: 1/4=48
%%MIDI tuningsystem comma53
d4{e}d2c2 d4e4 e2d2{e}d2e2 c4g2=f2  | \
w:  Zan *  *  *  *  *  net  | 
=f2e2{f}e2d2 d2e2d2cd c2B2^A2{d}c=B B4z4  | 
w:  me  *  *  *  *  *  *  be *  *  nim   | 
=f3ed4 c3=BA3G F3_1/4ED4 G3FG2A2  | \
w:  gi *  *  *  *  *  *  *  *  *  bi  *  *  sa  | 
=B6A2 G4c3B A2c4_1/4BA A4z4  | 
w:  na   | 
d8 _1/4e2d2c=Bc2 ede2fed2 d6c2  | \
w:  be  *  *  *  *  *  be   | 
d3c=B2c2 B3AB2c2 d2_1/4e2d2c2 e2def2ed  | 
w:  *  *  *  *  ben *  de  bu lur  | 
d3cdcc=B B4d4 d3_1/4edcBc _1/4B4A4  | \
w:  *  *  *  sun  *  *  *  a man    | 
G6A2 G4A4 =B2ABcdcB B4z4  | 
w:  Di  de  rel  li  ten  *  *  dir  *  *  *  ten   | 
c4d4 d6_1/4e2 e2d2d2c2 =B2c4B2  | \
w:  ter  dil  li  *  dir  *  li  *  ten   | 
A3=BA2B2 c4d4 d4c2B2 e4d4  | 
w:  di  *  *  de  re  de  re  di  re  de   | 
_1/4e3dc4 g3=fe2d2 d3cdc=B^A B4z4  | \
w:  dir  *  ten  dir   *  Ten  *  nen  *  dir   | 
g2a2=f2_1/4e2 d2c2cdc=B z2e2d2c2 B3AG4  | 
w:  te  *  *  ne  nen  *  dir  *  *  *  te  *  ne  nen  *  dir   | 
G4G2A2 G4A4 z2Ac=B2A2 G3FB2AG  | z4D8=B2AG G12z4  | 
w:  ah  te  ne  dir  ten  nen  *  *  *  ta  *  dir   |  ni    | 
d2c2=B2A2 BcB2c4 d2_1/4efe2d2 d2c4(3dcB  | \
w:  Bil  *  *  *  *  *  *  *  kad  | 
f3_1/4ee3d d2e2d2cd c=B^ABA2c2 B4z4  | 
w:  ri *  *  *  ni  *  *  *  *  üf  | 
=f3_1/4ed4 c3=BA3G F3_1/4ED4 G3FG2A2  | \
w:  ta *  *  *  *  *  *  *  *  *  de *  *  le  | 
A6=B2 G4c3B A2c4_1/4BA A4z4  | 
w:  rin   | 
g3ff_1/4eef g4z4 agfef2g2 f3ef2g2  | \
w:  ha  *  *  *  *  *  *  ha  | 
gf2_1/4ed2e2 d4e2f2 g6f2 gf2ed2e2  | 
w:  *  *  *  *  *  *  li ne  rah  | 
d4d2_1/4e2 e3da2gf =e2g4fe e4z4  | \
w:  *  met  *  *  *  a *  *  man    | 
d2e4e2 e4e2g2 g=f2ed2g2 e4z4  | 
w:  Di  *  de  rel  li  *  ten  *  *  dir  *  ten   | 
g4g3f fgf_1/4ef2g2 g2f2fgfe d4z4  | \
w:  ter  dil  *  li  *  *  *  *  *  dil  *  li  *  *  *  ten   | 
_1/4e3fe2f2 g4a4 a4g2f2 a4a4  | 
w:  di  *  *  de  re  de  re  dir  *  de  re   | 
=b3ag4 b2a2a2g2 g2f2fgf_1/4e d4z4  | \
w:  dir  *  ten  dir   *  Ten  *  nen  *  dir  *  *  *  ten   | 
a2g2=f2_1/4e2 d2c2cdc=B z2=e2d2c2 B3AG4  | 
w:  te  *  *  nen  nen  *  dir  *  *  *  te  *  ne  nen  *  dir   | 
G4G2A2 G4A4 z2Ac=B2A2 G3FB2AG  | z4D8=B2AG G12z4  | 
w:  ah  te  ne  dir  ten  nen  *  *  *  ta  *  dir   |  ni   | 
|


